apps/www/public/images/logos/publicity/markprompt.svg

<svg width="177" height="60" viewBox="0 0 177 60" fill="none" xmlns="http://www.w3.org/2000/svg">
<path d="M47.3656 22.504C47.3656 22.1613 47.5018 21.8326 47.7441 21.5902C47.9865 21.3478 48.3152 21.2117 48.6579 21.2117H51.2429C51.5857 21.2117 51.9144 21.3478 52.1568 21.5902C52.3991 21.8326 52.5353 22.1613 52.5353 22.504V28.9663C52.5353 29.3091 52.3991 29.6378 52.1568 29.8802C51.9144 30.1225 51.5857 30.2587 51.2429 30.2587H48.6579C48.3152 30.2587 47.9865 30.1225 47.7441 29.8802C47.5018 29.6378 47.3656 29.3091 47.3656 28.9663V22.504ZM53.0524 35.6871C53.0524 37.4 51.6636 38.7889 49.9506 38.7889C48.2373 38.7889 46.8488 37.4 46.8488 35.6871C46.8488 33.9741 48.2373 32.5853 49.9506 32.5853C51.6636 32.5853 53.0524 33.9741 53.0524 35.6871ZM21.775 38.7889C21.4323 38.7889 21.1036 38.6527 20.8612 38.4103C20.6188 38.168 20.4827 37.8393 20.4827 37.4965V22.504C20.4827 22.1613 20.6188 21.8326 20.8612 21.5902C21.1036 21.3478 21.4323 21.2117 21.775 21.2117H25.0314C25.4238 21.2117 25.7952 21.3899 26.0404 21.6965L29.813 26.4124C29.9341 26.5638 30.0876 26.686 30.2624 26.77C30.4371 26.854 30.6285 26.8977 30.8223 26.8977C31.0162 26.8977 31.2076 26.854 31.3823 26.77C31.557 26.686 31.7106 26.5638 31.8317 26.4124L35.6039 21.6965C35.725 21.5452 35.8787 21.423 36.0534 21.3391C36.2281 21.2552 36.4195 21.2116 36.6133 21.2117H39.8693C40.2121 21.2117 40.5409 21.3478 40.7833 21.5902C41.0257 21.8325 41.1619 22.1612 41.162 22.504V37.4965C41.1619 37.8393 41.0257 38.168 40.7833 38.4104C40.5409 38.6527 40.2121 38.7889 39.8693 38.7889H37.2847C37.1149 38.7889 36.9468 38.7555 36.79 38.6906C36.6332 38.6257 36.4907 38.5305 36.3706 38.4105C36.2506 38.2904 36.1554 38.148 36.0904 37.9912C36.0254 37.8343 35.992 37.6663 35.992 37.4965V32.3923C35.992 31.1706 34.4536 30.6308 33.6906 31.5848L31.8317 33.9086C31.7106 34.0601 31.557 34.1823 31.3823 34.2663C31.2076 34.3503 31.0162 34.3939 30.8223 34.3939C30.6285 34.3939 30.4371 34.3503 30.2624 34.2663C30.0876 34.1823 29.9341 34.0601 29.813 33.9086L27.9541 31.5848C27.1911 30.6308 25.6527 31.1706 25.6527 32.3923V37.4965C25.6527 37.6663 25.6192 37.8343 25.5543 37.9912C25.4893 38.148 25.3941 38.2904 25.274 38.4105C25.154 38.5305 25.0115 38.6257 24.8547 38.6906C24.6978 38.7555 24.5298 38.7889 24.36 38.7889H21.775Z" fill="#7E7E7E"/>
<path d="M72.6383 24.0099H74.8111L78.5888 33.234H78.7279L82.5055 24.0099H84.6783V35.8761H82.9749V27.2893H82.8648L79.3652 35.8587H77.9514L74.4519 27.2835H74.3418V35.8761H72.6383V24.0099Z" fill="#7E7E7E"/>
<path d="M89.7321 36.0731C89.1682 36.0731 88.6583 35.9688 88.2025 35.7602C87.7467 35.5477 87.3856 35.2407 87.119 34.8389C86.8564 34.4372 86.7251 33.9447 86.7251 33.3615C86.7251 32.8593 86.8216 32.446 87.0148 32.1215C87.2079 31.7971 87.4686 31.5402 87.7969 31.3509C88.1253 31.1617 88.4922 31.0187 88.8978 30.9222C89.3034 30.8256 89.7167 30.7522 90.1377 30.702C90.6708 30.6402 91.1034 30.59 91.4356 30.5514C91.7678 30.5089 92.0092 30.4413 92.1598 30.3486C92.3105 30.2559 92.3858 30.1052 92.3858 29.8966V29.8561C92.3858 29.3501 92.2429 28.958 91.9571 28.6799C91.6751 28.4018 91.254 28.2627 90.694 28.2627C90.1107 28.2627 89.651 28.3921 89.315 28.6509C88.9828 28.9059 88.753 29.1898 88.6255 29.5026L86.9974 29.1318C87.1905 28.591 87.4725 28.1546 87.8433 27.8224C88.218 27.4863 88.6487 27.243 89.1354 27.0923C89.6221 26.9378 90.1339 26.8606 90.6708 26.8606C91.0261 26.8606 91.4028 26.9031 91.8006 26.988C92.2023 27.0692 92.577 27.2198 92.9247 27.44C93.2762 27.6601 93.5639 27.9749 93.788 28.3844C94.012 28.79 94.124 29.3172 94.124 29.9662V35.8761H92.4322V34.6593H92.3626C92.2506 34.8834 92.0826 35.1035 91.8586 35.3198C91.6345 35.5361 91.3467 35.7158 90.9952 35.8587C90.6437 36.0016 90.2227 36.0731 89.7321 36.0731ZM90.1088 34.6825C90.5877 34.6825 90.9972 34.5879 91.3371 34.3986C91.6809 34.2093 91.9416 33.9621 92.1193 33.657C92.3008 33.3479 92.3916 33.0177 92.3916 32.6662V31.519C92.3298 31.5808 92.2101 31.6387 92.0324 31.6928C91.8586 31.743 91.6596 31.7874 91.4356 31.826C91.2116 31.8608 90.9933 31.8936 90.7809 31.9245C90.5684 31.9516 90.3907 31.9748 90.2478 31.9941C89.9118 32.0366 89.6047 32.108 89.3266 32.2084C89.0523 32.3089 88.8321 32.4537 88.666 32.643C88.5038 32.8284 88.4227 33.0756 88.4227 33.3846C88.4227 33.8134 88.5811 34.1379 88.8978 34.358C89.2145 34.5743 89.6182 34.6825 90.1088 34.6825Z" fill="#7E7E7E"/>
<path d="M96.4315 35.8761V26.9764H98.106V28.3902H98.1987C98.3609 27.9112 98.6467 27.5346 99.0562 27.2604C99.4695 26.9822 99.9369 26.8432 100.458 26.8432C100.566 26.8432 100.694 26.847 100.841 26.8548C100.991 26.8625 101.109 26.8722 101.194 26.8837V28.5408C101.125 28.5215 101.001 28.5003 100.823 28.4771C100.646 28.4501 100.468 28.4365 100.29 28.4365C99.8809 28.4365 99.5158 28.5234 99.1952 28.6973C98.8785 28.8672 98.6274 29.1048 98.442 29.4099C98.2566 29.7112 98.1639 30.055 98.1639 30.4413V35.8761H96.4315Z" fill="#7E7E7E"/>
<path d="M104.287 32.8574L104.275 30.7426H104.576L108.122 26.9764H110.197L106.152 31.264H105.88L104.287 32.8574ZM102.693 35.8761V24.0099H104.426V35.8761H102.693ZM108.314 35.8761L105.127 31.6464L106.32 30.4355L110.44 35.8761H108.314Z" fill="#7E7E7E"/>
<path d="M111.776 39.2134V26.9764H113.467V28.4192H113.612C113.713 28.2337 113.857 28.0194 114.047 27.776C114.236 27.5327 114.499 27.3202 114.835 27.1387C115.171 26.9533 115.615 26.8606 116.167 26.8606C116.886 26.8606 117.527 27.0421 118.091 27.4052C118.655 27.7683 119.097 28.2917 119.418 28.9754C119.742 29.6591 119.905 30.4818 119.905 31.4436C119.905 32.4054 119.744 33.2301 119.424 33.9177C119.103 34.6014 118.663 35.1286 118.103 35.4995C117.542 35.8664 116.903 36.0499 116.185 36.0499C115.644 36.0499 115.202 35.9591 114.858 35.7776C114.518 35.596 114.251 35.3836 114.058 35.1402C113.865 34.8969 113.717 34.6806 113.612 34.4913H113.508V39.2134H111.776ZM113.473 31.4263C113.473 32.052 113.564 32.6005 113.745 33.0718C113.927 33.543 114.19 33.9119 114.533 34.1784C114.877 34.4411 115.298 34.5724 115.797 34.5724C116.314 34.5724 116.747 34.4353 117.094 34.161C117.442 33.8829 117.705 33.5063 117.882 33.0312C118.064 32.5561 118.155 32.0211 118.155 31.4263C118.155 30.8391 118.066 30.3119 117.888 29.8445C117.714 29.3771 117.452 29.0082 117.1 28.7378C116.753 28.4674 116.318 28.3322 115.797 28.3322C115.294 28.3322 114.87 28.4616 114.522 28.7204C114.178 28.9792 113.917 29.3404 113.74 29.8039C113.562 30.2675 113.473 30.8082 113.473 31.4263Z" fill="#7E7E7E"/>
<path d="M121.846 35.8761V26.9764H123.52V28.3902H123.613C123.775 27.9112 124.061 27.5346 124.47 27.2604C124.884 26.9822 125.351 26.8432 125.872 26.8432C125.981 26.8432 126.108 26.847 126.255 26.8548C126.405 26.8625 126.523 26.8722 126.608 26.8837V28.5408C126.539 28.5215 126.415 28.5003 126.237 28.4771C126.06 28.4501 125.882 28.4365 125.704 28.4365C125.295 28.4365 124.93 28.5234 124.609 28.6973C124.293 28.8672 124.041 29.1048 123.856 29.4099C123.671 29.7112 123.578 30.055 123.578 30.4413V35.8761H121.846Z" fill="#7E7E7E"/>
<path d="M131.537 36.0557C130.703 36.0557 129.975 35.8645 129.353 35.4821C128.731 35.0997 128.248 34.5647 127.905 33.8771C127.561 33.1896 127.389 32.3861 127.389 31.4668C127.389 30.5436 127.561 29.7363 127.905 29.0449C128.248 28.3535 128.731 27.8166 129.353 27.4342C129.975 27.0518 130.703 26.8606 131.537 26.8606C132.372 26.8606 133.1 27.0518 133.722 27.4342C134.344 27.8166 134.827 28.3535 135.17 29.0449C135.514 29.7363 135.686 30.5436 135.686 31.4668C135.686 32.3861 135.514 33.1896 135.17 33.8771C134.827 34.5647 134.344 35.0997 133.722 35.4821C133.1 35.8645 132.372 36.0557 131.537 36.0557ZM131.543 34.6014C132.084 34.6014 132.532 34.4585 132.887 34.1726C133.243 33.8868 133.506 33.5063 133.675 33.0312C133.849 32.5561 133.936 32.0327 133.936 31.461C133.936 30.8932 133.849 30.3717 133.675 29.8966C133.506 29.4177 133.243 29.0333 132.887 28.7436C132.532 28.4539 132.084 28.3091 131.543 28.3091C130.999 28.3091 130.547 28.4539 130.187 28.7436C129.832 29.0333 129.568 29.4177 129.394 29.8966C129.224 30.3717 129.139 30.8932 129.139 31.461C129.139 32.0327 129.224 32.5561 129.394 33.0312C129.568 33.5063 129.832 33.8868 130.187 34.1726C130.547 34.4585 130.999 34.6014 131.543 34.6014Z" fill="#7E7E7E"/>
<path d="M137.62 35.8761V26.9764H139.283V28.425H139.393C139.578 27.9344 139.881 27.552 140.302 27.2777C140.723 26.9996 141.227 26.8606 141.815 26.8606C142.409 26.8606 142.908 26.9996 143.309 27.2777C143.715 27.5558 144.014 27.9383 144.208 28.425H144.3C144.513 27.9498 144.851 27.5713 145.314 27.2893C145.778 27.0035 146.33 26.8606 146.971 26.8606C147.779 26.8606 148.437 27.1136 148.947 27.6196C149.461 28.1256 149.718 28.8885 149.718 29.9082V35.8761H147.985V30.0705C147.985 29.4679 147.821 29.0314 147.493 28.761C147.164 28.4906 146.772 28.3554 146.317 28.3554C145.753 28.3554 145.314 28.5292 145.001 28.8769C144.688 29.2207 144.532 29.6629 144.532 30.2037V35.8761H142.805V29.9604C142.805 29.4775 142.655 29.0893 142.353 28.7958C142.052 28.5022 141.66 28.3554 141.177 28.3554C140.849 28.3554 140.546 28.4423 140.268 28.6162C139.993 28.7861 139.771 29.0237 139.601 29.3288C139.435 29.634 139.352 29.9874 139.352 30.3891V35.8761H137.62Z" fill="#7E7E7E"/>
<path d="M152.04 39.2134V26.9764H153.731V28.4192H153.876C153.977 28.2337 154.122 28.0194 154.311 27.776C154.5 27.5327 154.763 27.3202 155.099 27.1387C155.435 26.9533 155.879 26.8606 156.432 26.8606C157.15 26.8606 157.791 27.0421 158.355 27.4052C158.919 27.7683 159.361 28.2917 159.682 28.9754C160.006 29.6591 160.169 30.4818 160.169 31.4436C160.169 32.4054 160.008 33.2301 159.688 33.9177C159.367 34.6014 158.927 35.1286 158.367 35.4995C157.807 35.8664 157.167 36.0499 156.449 36.0499C155.908 36.0499 155.466 35.9591 155.122 35.7776C154.782 35.596 154.516 35.3836 154.322 35.1402C154.129 34.8969 153.981 34.6806 153.876 34.4913H153.772V39.2134H152.04ZM153.737 31.4263C153.737 32.052 153.828 32.6005 154.01 33.0718C154.191 33.543 154.454 33.9119 154.798 34.1784C155.141 34.4411 155.562 34.5724 156.061 34.5724C156.578 34.5724 157.011 34.4353 157.359 34.161C157.706 33.8829 157.969 33.5063 158.147 33.0312C158.328 32.5561 158.419 32.0211 158.419 31.4263C158.419 30.8391 158.33 30.3119 158.152 29.8445C157.979 29.3771 157.716 29.0082 157.364 28.7378C157.017 28.4674 156.582 28.3322 156.061 28.3322C155.559 28.3322 155.134 28.4616 154.786 28.7204C154.442 28.9792 154.181 29.3404 154.004 29.8039C153.826 30.2675 153.737 30.8082 153.737 31.4263Z" fill="#7E7E7E"/>
<path d="M166.264 26.9764V28.367H161.403V26.9764H166.264ZM162.706 24.8442H164.439V33.263C164.439 33.599 164.489 33.852 164.589 34.022C164.69 34.1881 164.819 34.302 164.978 34.3638C165.14 34.4218 165.316 34.4507 165.505 34.4507C165.644 34.4507 165.766 34.4411 165.87 34.4218C165.974 34.4025 166.055 34.387 166.113 34.3754L166.426 35.8065C166.326 35.8452 166.183 35.8838 165.997 35.9224C165.812 35.9649 165.58 35.9881 165.302 35.9919C164.846 35.9997 164.421 35.9186 164.027 35.7486C163.633 35.5786 163.315 35.316 163.071 34.9606C162.828 34.6052 162.706 34.1591 162.706 33.6222V24.8442Z" fill="#7E7E7E"/>
</svg>

<svg xmlns="http://www.w3.org/2000/svg" width="177" height="60" fill="none" viewBox="0 0 177 60"><path fill="#7e7e7e" d="M47.366 22.504a1.293 1.293 0 0 1 1.292-1.292h2.585a1.29 1.29 0 0 1 1.292 1.292v6.462a1.293 1.293 0 0 1-1.292 1.293h-2.585a1.293 1.293 0 0 1-1.292-1.293zm5.686 13.183a3.102 3.102 0 1 1-6.204 0 3.102 3.102 0 0 1 6.204 0M21.775 38.79a1.29 1.29 0 0 1-1.292-1.293V22.504a1.29 1.29 0 0 1 1.292-1.292h3.256c.393 0 .764.178 1.01.485l3.772 4.715a1.292 1.292 0 0 0 2.019 0l3.772-4.715a1.3 1.3 0 0 1 1.01-.485h3.255a1.293 1.293 0 0 1 1.293 1.292v14.992a1.293 1.293 0 0 1-1.293 1.293h-2.584a1.294 1.294 0 0 1-1.293-1.293v-5.104c0-1.221-1.538-1.761-2.301-.807l-1.86 2.324a1.292 1.292 0 0 1-2.018 0l-1.859-2.324c-.763-.954-2.301-.414-2.301.807v5.104a1.294 1.294 0 0 1-1.293 1.293zM72.638 24.01h2.173l3.778 9.224h.139l3.778-9.224h2.172v11.866h-1.703V27.29h-.11l-3.5 8.57h-1.414l-3.5-8.576h-.11v8.593h-1.703zM89.732 36.073a3.6 3.6 0 0 1-1.53-.313 2.6 2.6 0 0 1-1.083-.921q-.394-.603-.394-1.477 0-.754.29-1.24.29-.488.782-.771t1.1-.429q.61-.145 1.24-.22l1.299-.15q.498-.064.724-.203.225-.14.226-.452v-.04q0-.76-.429-1.177-.423-.417-1.263-.417-.875 0-1.379.388-.498.383-.69.852l-1.628-.371q.29-.811.846-1.31.563-.504 1.292-.73a5 5 0 0 1 1.536-.231q.533 0 1.13.127a3.3 3.3 0 0 1 1.124.452q.527.33.863.944.336.609.336 1.582v5.91h-1.692V34.66h-.07q-.168.336-.503.66a2.7 2.7 0 0 1-.864.54q-.527.214-1.263.214m.377-1.39q.718 0 1.228-.284.516-.285.782-.742.273-.465.273-.99v-1.148q-.093.093-.36.174-.26.075-.596.133-.337.053-.655.098-.319.041-.533.07a4.3 4.3 0 0 0-.921.214q-.412.15-.661.435-.243.278-.243.742 0 .642.475.973.475.325 1.21.325M96.432 35.876v-8.9h1.674v1.414h.093a2.15 2.15 0 0 1 .857-1.13q.62-.417 1.402-.417a7 7 0 0 1 .736.04v1.658a3 3 0 0 0-.371-.064 3.5 3.5 0 0 0-.533-.04q-.614 0-1.095.26a1.94 1.94 0 0 0-1.031 1.744v5.435zM104.287 32.857l-.012-2.114h.301l3.546-3.767h2.075l-4.045 4.288h-.272zm-1.594 3.02V24.01h1.733v11.866zm5.621 0-3.187-4.23 1.193-1.211 4.12 5.44zM111.776 39.213V26.976h1.691v1.443h.145q.15-.278.435-.643.284-.365.788-.637.504-.279 1.332-.278 1.078 0 1.924.544.846.545 1.327 1.57.487 1.026.487 2.469t-.481 2.474q-.481 1.024-1.321 1.581-.841.55-1.918.55-.811 0-1.327-.271a2.5 2.5 0 0 1-.8-.638 5 5 0 0 1-.446-.649h-.104v4.722zm1.697-7.787q0 .939.272 1.646.273.707.788 1.106.516.394 1.264.394.776 0 1.297-.411.522-.417.788-1.13.273-.712.273-1.605 0-.88-.267-1.581-.26-.702-.788-1.107-.521-.405-1.303-.406-.754 0-1.275.388-.516.389-.782 1.084-.267.695-.267 1.622M121.846 35.876v-8.9h1.674v1.414h.093q.243-.718.857-1.13a2.46 2.46 0 0 1 1.402-.417 7 7 0 0 1 .736.04v1.658a3 3 0 0 0-.371-.064 3.5 3.5 0 0 0-.533-.04q-.614 0-1.095.26a1.94 1.94 0 0 0-1.031 1.744v5.435zM131.537 36.056q-1.251 0-2.184-.574a3.86 3.86 0 0 1-1.448-1.605q-.516-1.03-.516-2.41 0-1.384.516-2.422a3.85 3.85 0 0 1 1.448-1.61q.933-.574 2.184-.574t2.185.573q.933.575 1.448 1.61.516 1.038.516 2.423 0 1.38-.516 2.41a3.86 3.86 0 0 1-1.448 1.605q-.933.574-2.185.574m.006-1.455q.811 0 1.344-.428a2.5 2.5 0 0 0 .788-1.142q.261-.712.261-1.57 0-.852-.261-1.564a2.54 2.54 0 0 0-.788-1.153q-.532-.435-1.344-.435-.816 0-1.356.435-.532.435-.793 1.153-.255.712-.255 1.564 0 .858.255 1.57.26.713.793 1.142.54.428 1.356.428M137.62 35.876v-8.9h1.663v1.449h.11q.278-.735.909-1.147.631-.417 1.513-.417.892 0 1.494.417.609.417.899 1.147h.092a2.5 2.5 0 0 1 1.014-1.136q.696-.428 1.657-.428 1.212 0 1.976.759.771.759.771 2.288v5.968h-1.733v-5.805q0-.905-.492-1.31a1.8 1.8 0 0 0-1.176-.406q-.846 0-1.316.522-.47.516-.469 1.327v5.672h-1.727V29.96q0-.724-.452-1.164t-1.176-.44q-.492 0-.909.26a1.9 1.9 0 0 0-.667.713 2.2 2.2 0 0 0-.249 1.06v5.487zM152.04 39.213V26.976h1.691v1.443h.145q.152-.278.435-.643t.788-.637q.504-.279 1.333-.278 1.077 0 1.923.544.846.545 1.327 1.57.487 1.026.487 2.469t-.481 2.474q-.481 1.024-1.321 1.581-.84.55-1.918.55-.811 0-1.327-.271a2.5 2.5 0 0 1-.8-.638 5 5 0 0 1-.446-.649h-.104v4.722zm1.697-7.787q0 .939.273 1.646.272.707.788 1.106.514.394 1.263.394.776 0 1.298-.411.52-.417.788-1.13a4.5 4.5 0 0 0 .272-1.605q0-.88-.267-1.581-.26-.702-.788-1.107-.521-.405-1.303-.406-.753 0-1.275.388-.516.389-.782 1.084-.267.695-.267 1.622M166.264 26.976v1.391h-4.861v-1.39zm-3.558-2.132h1.733v8.419q0 .504.15.759.151.249.389.342.243.087.527.087.209 0 .365-.03.156-.027.243-.046l.313 1.431a3 3 0 0 1-.429.116 3.4 3.4 0 0 1-.695.07 3.05 3.05 0 0 1-1.275-.243 2.2 2.2 0 0 1-.956-.788q-.365-.534-.365-1.339z"/></svg>
